X:120
T: Cosey Jigg
N: O'Farrell's Pocket Companion v.2 (Sky ed. p.68)
N: "Irish"
M: 6/8
R: jig
L: 1/8
Q: 320
K: G
A/B/|c3 B3|AGA BGE|DEG G/A/BG|AGA BGE|
cec BdB|AGA BGE|DEG AGA |BGG G2 :|
P:2
d|gag gdB|cec dBG|g a/g/f/e/ gdB| ecA A2f|
g a/g/f/e/ gdB|cec dBG|DEG AGA|BGG G2 :|
P:3
z|GBd GBd|Gce Gce|GBd GBd|ecA A2B|
GBd GBd|Ace e>fHg|dcB AGA|BGG G2 :|
